X:1
T:I follow, lo, the footing - Morley
T:#
%%score { 1 | 2 } 3 4 5
L:1/8
Q:1/4=120
M:4/4
K:Bb
V:1 treble nm="Soprano I" snm="S"
V:2 treble 
V:3 treble nm="Alto" snm="A"
V:4 treble-8 nm="Tenor" snm="T"
V:5 bass nm="Bass" snm="B"
V:1
 z8 | z2 B2"^I follow, lo, the footing" B2 c2- | c2 d4 d2 | (=e4 f4) | B4 z4 | %5
w: |I fol- low,|* lo, the|foot\- *|ing|
"^Thomas Morley \n(1557-1603)" z8 |[M:4/4] z4 z2 d2 | edcB c2 A2- | A2 z2 z4 | z2 B2 fedc | %10
w: |Still|of my love- ly Cru- el,||Still of my love- ly|
 d2 B2 z4 | F2 FG AB c2 | A2 z2 c2 fe | dc d2 B2 z2 | z4 c2 cB | AB (c3 B AG) | (FG =E2) F2 c2 | %17
w: Cru- el,|Still of my love- ly Cru-|el, Still of my|love- ly Cru- el.|Still of my|love- ly Cru\- * * *|* * * el, Still|
 f_edc d4 | c4 z2 c2 | c2 c2 c4 | c8 | c4 f4- | f4 e4 | d8 | c2 e4 d2 | B2 d2 c4 | B2 d2 d2 c2 | %27
w: of my love- ly Cru-|el, my|love- ly Cru-|el.|Proud of|* her-|self|that she is|Beau- ty's jew-|el, that she is|
 B2 e2 d4 | d2 e2 e2 d2 | c4 =B4 | c8 | c2 c2 c3 _B | A2 B2 (c2 d2) | f2 d2 B4- | B4 A2 z2 | %35
w: Beau- ty's jew-|el, that she is|Beau- ty's|jew-|el. And fast a-|way she fli\- *|eth, she fli\-|* eth,|
 z2 f2 f3 e | d2 d2 c4 | c2 c2 (cBAG) | F4 z4 | z2 f2 f3 e | d4 d2 (c2- | cB B4 A2) | B4 B2 c2 | %43
w: And fast a-|way she fli-|eth, she fli\- * * *|eth,|And fast a-|way she fli\-||eth. Love's sweet|
 A2 B4 A2 | B2 B2 z4 | z2 B2 f2 d2 | _e2 e2 d4 | c8 | z2 c2 d2 e2 | c4 d2 B2 | B2 B2 G4 | A4 z4 | %52
w: de- light de-|rid- ing.|Love's sweet de-|light de- rid-|ing,|In woods and|groves sweet, In|woods and groves|sweet,|
 z8 | z4 z2 f2 | f3 f e4- | e2 d2 c4 | d8 | d2 d4 c2 | B4 e4 | d8 | d8 | z8 | z8 | z8 | z8 | z8 | %66
w: |Sweet|Na- ture's trea\-|* sure hid-|ing.|Yet cease I|not pur-|su-|ing.||||||
 z2 d2 dcBA | GABc d2 G2 | z4 c2 cB | A2 A2 (F4 | B2) f2 fedc | Bcde (fe c2 | d2) B2 z4 | %73
w: Will run me out of|breath till I have caught her,|Will run me|out of breath,|* Will run me out of|breath till I have caught * *|* her,|
 F2 FG ABcd | ef g6 | f2 F2 Bcde | fedd c2 cF | FGAB cBAG | (FGAB) c2 f2 | %79
w: Will run me out of breath till|I have caught|her, Will run me out of|breath till I have caught her, Will|run me out of breath till I have|caught * * * her, Will|
[Q:1/4=119] f[Q:1/4=117]e[Q:1/4=116]d[Q:1/4=115]c[Q:1/4=114] B[Q:1/4=112]c[Q:1/4=111]d[Q:1/4=110]e | %80
w: run me out of breath till I have|
[Q:1/4=108] (f[Q:1/4=107]e[Q:1/4=106]d[Q:1/4=105]c[Q:1/4=104] B[Q:1/4=102]A[Q:1/4=101] B2) | %81
w: caught * * * * * *|
[Q:1/4=100] A8 |] %82
w: her.|
V:2
 z8 | F4 G4 | A4 B2 B2 | c4 F4 | z4 z4 | z8 |[M:4/4] z8 | z4 z2 A2 | fedc d2 (c2 | B2) e2 dcde | %10
w: |I fol-|low, lo, the|foot- ing||||Still|of my love- ly Cru- el,|* Still of my love- ly|
 (fedc d2 B2) | A2 z2 z2 F2 | cBAG A2 F2 | B2 fe dc d2 | B2 B2 AGAB | c2 A2 z2 F2 | cBAG A4 | %17
w: Cru- * * * * *|el, Still|of my love- ly Cru- el,|Still of my love- ly Cru-|el. Still of my love- ly|Cru- el, Still|of my love- ly Cru-|
 B4 z4 | z2 C2 c2 A2 | (G2 F4 =E2) | F8 | z4 A4 | d6 (c2- | c2 =BA B4) | c2 c2 c2 _B2 | G2 B2 A4 | %26
w: el,|my love- ly|Cru\- * *|el.|Proud|of her\-||self that she is|Beau- ty's jew-|
 B2 B2 B2 A2 | G2 G2 ^F4 | G2 B2 B2 B2 | A4 F4 | (G2 F4 =E2) | F8 | z2 f2 f3 e | d2 B2 e4 | %34
w: el, that she is|Beau- ty's jew-|el, that she is|Beau- ty's|jew\- * *|el.|And fast a-|way she fli-|
 d2 d2 (cBAG) | F2 d2 c2 c2 | B2 B2 G4 | A4 z2 f2 | f3 e d2 B2 | (B2 A2) B4 | z2 F2 F3 G | %41
w: eth, she fli\- * * *|eth, And fast a-|way she fli-|eth, And|fast a- way she|fli\- * eth,|And fast a-|
 A2 B2 c4 | d2 f2 d2 e2 | c2 B2 c4 | B4 z2 F2 | B2 G2 A2 B2 | G4 F2 (G2- | GF) (F4 =E2) | %48
w: way she fli-|eth. Love's sweet de-|light de- rid-|ing. Love's|sweet de- light de-|rid- ing, de\-|* * rid\- *|
 F2 A2 B2 B2 | A4 B2 d2 | e2 d2 c4 | c2 c2 c3 c | c2 d2 e4 | d2 d2 d3 d | c6 B2 | (A2 B4 A2) | B8 | %57
w: ing, In woods and|groves sweet, In|woods and groves|sweet, Sweet Na- ture's|trea- sure hid-|ing, sweet Na- ture's|trea- sure|hid\- * *|ing.|
 B2 B4 A2 | G4 c4 | B8 | A4 d4 | c4 B4 | e6 d2 | (c4 B4) | A4 B4 | (B4 A4) | B4 d2 dc | %67
w: Yet cease I|not pur-|su-|ing. But|since I|thus have|sought *|her, have|sought *|her, Will run me|
 BAGA Bc (de) | f4 z4 | z4 z2 f2 | fedc Bcde | f2 B2 z2 f2 | fedc Bcde | (f2 d2) c4 | C2 CD EFGA | %75
w: out of breath till I have caught *|her,|Will|run me out of breath till I have|caught her, Will|run me out of breath till I have|caught * her,|Will run me out of breath till|
 Bc (de fedc) | d2 z2 z4 | F2 FG ABcB | AG F2 F2 C2 | D2 f2 fedc | Bcde (f2 d2) | c8 |] %82
w: I have caught * * * * *|her,|Will run me out of breath till|I have caught her, caught|her, Will run me out of|breath till I have caught *|her.|
V:3
 B,4 C4 | D4 E4 | F4 G4 | C4 z4 | z4 z2 F2- | F2 G4 A2- |[M:4/4] A2 A2 B4 | c4 F4 | z4 F2 BA | %9
w: I fol-|low, lo,|the foot-|ing,|I|* fol- low,|* lo, the|foot- ing,|Still of my|
 GF G2 F4 | z4 z2 F2 | FGAB (cBAG) | F4 z2 B,2 | FEDC (D2 B,2 | E2 D2) C2 F,2 | F,G,A,B, C2 C2 | %16
w: love- ly Cru- el,|Still|of my love- ly Cru\- * * *|el, Still|of my love- ly Cru\- *|* * el, Still|of my love- ly Cru- el,|
 z8 | z2 F2 BAGF | A2 F4 F2 | =E2 F2 G4 | A8 | F8 | B4 G4 | G8 | E2 C4 D2 | E2 B,2 F4 | B,4 z4 | %27
w: |Still of my love- ly|Cru- el, my|love- ly Cru-|el.|Proud|of her-|self|that she is|Beau- ty's jew-|el,|
 z8 | z2 G2 G2 F2 | F6 D2 | (=E2 F2 G4) | A4 z2 F2 | F3 E D2 F2 | B2 FF G4 | F8 | z2 B2 B2 A2 | %36
w: |that she is|Beau- ty's|jew\- * *|el. And|fast a- way she|fli- eth, she fli-|eth,|And fast a-|
 B2 F2 (F2 =E2) | F8 | z4 z2 F2 | F3 E D2 B,2 | (B,CDE) F2 z2 | z2 F,2 F4 | F2 F2 G2 E2 | %43
w: way she fli\- *|eth,|And|fast a- way she|fli\- * * * eth,|she fli-|eth. Love's sweet de-|
 F2 G2 F4 | F2 (G3 F) (F2- | F2 =E2) F2 F2 | G2 _E2 F2 D2 | (=E2 F2 G4) | A2 F2 F2 G2 | F4 F2 F2 | %50
w: light de- rid-|ing, de\- * rid\-|* * ing. Love's|sweet de- light de-|rid\- * *|ing, In woods and|groves sweet, In|
 G2 F2 (F2 =E2) | F2 _A2 A3 A | G2 F2 (E2 C2) | F2 B2 B3 B | A6 G2 | F8 | B,8 | F2 F4 F2 | D4 G4 | %59
w: woods and groves *|sweet, Sweet Na- ture's|trea- sure hid\- *|ing, sweet Na- ture's|trea- sure|hid-|ing.|Yet cease I|not pur-|
 G8 | ^F8 | z4 F4 | G8- | G4 G4 | F4 F4 | F8 | D2 G,2 G,A,B,C | DCB,E D2 B,B | A2 Fc cBAG | %69
w: su-|ing.|But|since|* I|thus have|sought|her, Will run me out of|breath till I have caught her, have|caught her, Will run me out of|
 FGAB c2 C2 | F2 FE DCB,C | DE F2 D2 z2 | B,2 B,C DEFD | DE F2 C2 C2 | CDEF GABc | d2 B2 z2 B,2 | %76
w: breath till I have caught her,|Will run me out of breath till|I have caught her,|Will run me out of breath till|I have caught her, Will|run me out of breath till I have|caught her, Will|
 B,CDE FGAB | (cBAF) F2 F2 | F3 G A2 F2 | F2 FE DCB,C | DE F6 | F8 |] %82
w: run me out of breath till I have|caught * * * her, till|I have caught her,|Will run me out of breath till|I have caught|her.|
V:4
 z8 | z8 | z8 | z8 | B4 c4 | d4 e4 |[M:4/4][K:treble-8] f4 g4 | c4 z4 | F2 fe dc d2 | B4 z2 B2 | %10
w: ||||I fol-|low, lo,|the foot-|ing,|Still of my love- ly Cru-|el, Still|
 Bcde (f2 d2) | c8 | z2 F2 fedc | d2 B2 z2 B2 | Bcde f4 | c2 F2 F3 G | (AB) c2 c2 fe | %17
w: of my love- ly Cru\- *|el,|Still of my love- ly|Cru- el, Still|of my love- ly Cru-|el, my love- ly|Cru\- * el, Still of my|
 dc d2 B2 B2 | cBAG A2 FF | c2 A2 G4 | F4 c4 | A3 B c4 | F4 G4 | d4 G4- | G4 z4 | z8 | %26
w: love- ly Cru- el, Still|of my love- Iy Cru- el, my|love- ly Cru-|el. Proud|of her- self,|proud of|her- self|||
 z2 f2 f2 f2 | d2 c2 A4 | =B2 _B2 B2 B2 | c4 F4 | c8 | c8 | z8 | z8 | z2 f2 f3 e | d2 B2 f4 | %36
w: that she is|Beau- ty's jew-|el, that she is|Beau- ty's|jew-|el.|||And fast a-|way she fli-|
 B2 B2 c4 | F8 | z2 f2 f3 e | d2 c2 (Bcde) | f4 B2 e2- | e2 d2 c4 | B4 z4 | z4 z2 f2 | %44
w: eth, she fli-|eth,|And fast a-|way she fli\- * * *|eth, a- way|* she fli-|eth.|Love's|
 d2 e2 c2 d2 | B4 c2 B2- | B2 c2 G2 B2- | B2 A2 G4 | F4 z4 | z4 z2 B2 | e2 B2 c4 | F2 f2 f2 c2 | %52
w: sweet de- light de-|rid- ing. Love's|* sweet de- light|* de- rid-|ing,|In|woods and groves|sweet, Sweet Na- ture's|
 e2 B2 (B2 A2) | B8 | z8 | z8 | z8 | B2 d4 A2 | B4 c4 | d4 G4 | A8 | z4 d4 | c4 B4 | e8- | e4 d4 | %65
w: trea sure hid\- *|ing.||||Yet cease I|not pur-|su\- *|ing.|But|since I|thus|* have|
 c8 | B8 | z2 g2 gfed | cBAG F4 | F4 f2 fe | dcBc de f2 | f2 z2 z4 | z2 f2 fedc | B2 B2 f2 f2 | %74
w: sought|her,|Will run me out of|breath till I have caught|her, Will run me|out of breath till I have caught|her,|Will run me out of|breath till I have|
 e2 E4 z2 | B2 Bc defe | dc B2 A4 | z4 z2 c2 | cBAG FGAA | B2 F2 f2 fe | dcBc dc B2 | c8 |] %82
w: caught her,|Will run me out of breath till|I have caught her,|Will|run me out of breath till I have|caught her, Will run me|out of breath till I have caught|her.|
V:5
 z8 | z8 | z8 | z4 F,4 | G,4 A,4 | B,4 C4 |[M:4/4] D4 G,4 | z8 | z2 F,2 B,A,G,F, | (G,2 E,2) B,,4 | %10
w: |||I|fol- low,|lo, the|foot- ing,||Still of my love- ly|Cru\- * el,|
 z2 B,,2 B,,C,D,E, | F,8 | F,4 z4 | z2 B,,2 B,A,G,F, | (G,A, B,2) F,4 | z8 | z2 C,2 F,_E,D,C, | %17
w: Still of my love- ly|Cru-|el,|Still of my love- ly|Cru\- * * el,||Still of my love- ly|
 D,2 B,,4 B,,2 | F,4 F,4 | C,8 | F,8 | F,8 | D,4 (E,2 F,2 | G,8) | C,4 z4 | z8 | z2 B,2 B,2 F,2 | %27
w: Cru- el, my|love- ly|Cru-|el.|Proud|of her\- *||self||that she is|
 G,2 C,2 D,4 | G,2 E,2 E,2 B,,2 | F,4 D,4 | C,8 | F,8 | z4 z2 B,2 | B,3 A, G,2 E,2 | B,4 F,4 | z8 | %36
w: Beau- ty's jew-|el, that she is|Beau- ty's|jew-|el.|And|fast a- way she|fli- eth,||
 z8 | z2 F,2 F,3 _E, | D,2 B,,2 B,4 | F,4 z2 B,,2 | B,,3 C, D,2 E,2 | F,8 | B,,4 z4 | z4 z2 F,2 | %44
w: |And fast a-|\-way she fli-|eth, And|fast a- way she|fli-|eth.|Love's|
 B,2 G,2 A,2 B,2 | G,4 F,2 B,,2 | _E,2 C,2 D,2 B,,2 | C,8 | F,2 F,2 B,2 E,2 | F,4 B,,4 | z8 | %51
w: sweet de- light de-|rid- ing, Love's|sweet de- light de-|rid-|ing, In woods and|groves sweet,||
 z2 F,2 F,3 F, | E,2 D,2 C,4 | B,,8 | z8 | z8 | z8 | B,2 B,4 F,2 | G,4 C,4 | G,8 | D,8 | z4 D,4 | %62
w: Sweet Na- ture's|trea- sure hid-|ing.||||Yet cease I|not pur-|su-|ing.|But|
 E,8- | E,8 | F,8- | F,8 | G,8- | G,8 | A,8- | A,8 | B,8- | B,8 | B,4 z2 B,,2 | %73
w: since||I||thus||have||sought||her, Will|
 B,,C,D,E, F,G,A,B, | C2 C,4 E,2 | D,4 B,,4 | B,4 F,4- | F,4 F,4 | F,4 F,4 | B,,8- | B,,8 | F,8 |] %82
w: run me out of breath till I have|caught her, till|I have|caught her,|* till|I have|caught||her.|

